X: 1768
T: April Storm
R: jig
M: 6/8
K: Eminor
|:e2 e2 B/^c/d|e2 e2 ef|gfe dcd|gfe dcd|
e2 e2 B/^c/d|e2 e2 ef|gfe dcB|1 AGF E3:|2 AGF E2D||
|:~E3 FED|EFA B2^c|d3 AB/^c/d|BdB A2F|
~E3 FED|EFA B2f|gfe dcB|1 AGF E2D:|2 AGF E3||

